X:109
T:Ronnel's reel
R:reel
M:4/4
L:1/8
K:G
|: Bc | dBGB cAFA | G2BG dGBG | cBAC BAGB | Ad^cd fdAd |
B2 GB cAFA | G2 BG dGBG | cBAC BAGB | AGEF G2 ::
Bc | dBgB dgBg | ecag fdBc | dBgB dgBg | ecag f2 Bc |
dBgB dgBg | ecag fdBc | B2gb cAFA | g2 BDG2 :|
